icons/fill-new-nature-weather-heavy-rain.svg

<svg xmlns="http://www.w3.org/2000/svg" width="32px" height="32px" viewBox="0 0 32 32" version="1.1">
    <title>fill-new-nature-weather-heavy-rain</title>
    <g id="fill-new-nature-weather-heavy-rain" stroke-width="1" fill-rule="evenodd">
        <path d="M9.5,23 C5.35786438,23 2,19.6421356 2,15.5 C2,11.7923125 4.69042423,8.71300727 8.22550809,8.10784886 C9.07463205,4.60318411 12.2333129,2 16,2 C19.7666871,2 22.925368,4.60318411 23.775106,8.10861573 C27.3095758,8.71300727 30,11.7923125 30,15.5 C30,19.6421356 26.6421356,23 22.5,23 L9.5,23 Z M7,25 C7.55228475,25 8,25.4477153 8,26 L8,29 C8,29.5522847 7.55228475,30 7,30 C6.44771525,30 6,29.5522847 6,29 L6,26 C6,25.4477153 6.44771525,25 7,25 Z M13,25 C13.5522847,25 14,25.4477153 14,26 L14,29 C14,29.5522847 13.5522847,30 13,30 C12.4477153,30 12,29.5522847 12,29 L12,26 C12,25.4477153 12.4477153,25 13,25 Z M19,25 C19.5522847,25 20,25.4477153 20,26 L20,29 C20,29.5522847 19.5522847,30 19,30 C18.4477153,30 18,29.5522847 18,29 L18,26 C18,25.4477153 18.4477153,25 19,25 Z M25,25 C25.5522847,25 26,25.4477153 26,26 L26,29 C26,29.5522847 25.5522847,30 25,30 C24.4477153,30 24,29.5522847 24,29 L24,26 C24,25.4477153 24.4477153,25 25,25 Z" id="&#24418;&#29366;" />
    </g>
</svg>

<svg xmlns="http://www.w3.org/2000/svg" viewBox="0 0 32 32"><path fill="currentColor" d="M9.5 23A7.5 7.5 0 0 1 8.226 8.108a8.002 8.002 0 0 1 15.55 0A7.5 7.5 0 0 1 22.5 23zM7 25a1 1 0 0 1 1 1v3a1 1 0 0 1-2 0v-3a1 1 0 0 1 1-1m6 0a1 1 0 0 1 1 1v3a1 1 0 0 1-2 0v-3a1 1 0 0 1 1-1m6 0a1 1 0 0 1 1 1v3a1 1 0 0 1-2 0v-3a1 1 0 0 1 1-1m6 0a1 1 0 0 1 1 1v3a1 1 0 0 1-2 0v-3a1 1 0 0 1 1-1"/></svg>
